!!!COM: Palestrina, Giovanni Perluigi da
!!!OPR: In minoribus duplicibus
!!!OTL: Agnus II
**kern	**kern	**kern	**kern	**kern
*Ibass	*Itenor	*Itenor	*Icalto	*Icant
!Bassus	!Tenor 2	!Tenor 1	!Altus	!Cantus
*clefF4	*clefGv2	*clefGv2	*clefG2	*clefG2
*k[]	*k[]	*k[]	*k[]	*k[]
*?:X	*?:X	*?:X	*?:X	*?:X
*M4/2	*M4/2	*M4/2	*M4/2	*M4/2
=1	=1	=1	=1	=1
0r	1c	0r	0r	0r
.	1d	.	.	.
=2	=2	=2	=2	=2
0r	1d	0r	1f	0r
.	2.e	.	1g	.
.	4d	.	.	.
=3	=3	=3	=3	=3
0r	2c	0r	1g	0r
.	2B	.	.	.
.	2A	.	2.a	.
.	4F	.	.	.
.	4G	.	4g	.
=4	=4	=4	=4	=4
1r	4A	1c	2f	0r
.	4B	.	.	.
.	1c	.	2e	.
1F	.	1d	1a	.
.	4B	.	.	.
.	4A	.	.	.
=5	=5	=5	=5	=5
1G	0B	1d	0g	0r
1G	.	[1e	.	.
=6	=6	=6	=6	=6
1A	1c	2e]	2e	0r
.	.	4d	2f	.
.	.	4c	.	.
1G	2d	2B	1g	.
.	2B	[2d	.	.
=7	=7	=7	=7	=7
2.F	1A	4d]	1r	1cc
.	.	4c	.	.
.	.	1c	.	.
4E	.	.	.	.
1D	2r	.	1f	1dd
.	2d	4B	.	.
.	.	4A	.	.
=8	=8	=8	=8	=8
1G	2G	1B	1g	1dd
.	2.g	.	.	.
2C	.	1c	1g	[1ee
.	4f	.	.	.
2c	4e	.	.	.
.	4d	.	.	.
=9	=9	=9	=9	=9
2A	2c	0r	1a	2ee]
2F	1d	.	.	4dd
.	.	.	.	4cc
1G	.	.	1g	2b
.	2B	.	.	[2dd
=10	=10	=10	=10	=10
0A	1c	1r	2f	4dd]
.	.	.	.	4cc
.	.	.	4e	1cc
.	.	.	4d	.
.	1r	1c	2e	.
.	.	.	2f	4b
.	.	.	.	4a
=11	=11	=11	=11	=11
1G	2r	1d	1.g	1b
.	2G	.	.	.
1r	[1c	1e	.	1cc
.	.	.	2f	.
=12	=12	=12	=12	=12
1C	2c]	1g	1e	0r
.	2B	.	.	.
1D	1A	1f	2.d	.
.	.	.	4c	.
=13	=13	=13	=13	=13
1E	4G	0e	4B	1r
.	4A	.	4A	.
.	4B	.	2G	.
.	8A	.	.	.
.	8B	.	.	.
2C	1c	.	1g	1cc
[2c	.	.	.	.
=14	=14	=14	=14	=14
2c]	1G	1d	2r	1dd
2B	.	.	2g	.
1A	1r	1c	1cc	1ee
=15	=15	=15	=15	=15
1G	0r	0d	2cc	1gg
.	.	.	2b	.
1r	.	.	2a	1ff
.	.	.	2a	.
=16	=16	=16	=16	=16
0C	1r	1e	2.g	0ee
.	.	.	4f	.
.	1c	1r	4e	.
.	.	.	4d	.
.	.	.	[2c	.
=17	=17	=17	=17	=17
1G	1d	0r	2c]	1dd
.	.	.	2B	.
1C	1e	.	2c	1cc
.	.	.	[2cc	.
=18	=18	=18	=18	=18
1G	1g	0r	2cc]	0dd
.	.	.	1b	.
2D	1f	.	.	.
2D	.	.	[2a	.
=19	=19	=19	=19	=19
1A	1e	1c	2a]	1ee
.	.	.	2.cc	.
1G	2r	1d	.	1r
.	.	.	8b	.
.	.	.	8a	.
.	[2g	.	2b	.
=20	=20	=20	=20	=20
2.c	4g]	2e	1cc	0r
.	4f	.	.	.
.	4e	2g	.	.
4B	4d	.	.	.
2A	2c	2f	1r	.
2G	2B	2e	.	.
=21	=21	=21	=21	=21
2F	2A	4d	2r	0r
.	.	4c	.	.
2E	2B	2.e	2g	.
1F	2.A	.	1a	.
.	.	8d	.	.
.	.	8c	.	.
.	.	2d	.	.
.	4B	.	.	.
=22	=22	=22	=22	=22
2C	1c	1e	0g	1cc
2.c	.	.	.	.
.	1G	1r	.	1dd
8B	.	.	.	.
8A	.	.	.	.
2B	.	.	.	.
=23	=23	=23	=23	=23
1c	1g	0r	1e	2ee
.	.	.	.	2gg
1r	2.a	.	2.cc	2ff
.	.	.	.	2ee
.	4g	.	4b	.
=24	=24	=24	=24	=24
0r	2f	0r	2a	4dd
.	.	.	.	4cc
.	2e	.	2g	2.ee
.	1f	.	1a	.
.	.	.	.	8dd
.	.	.	.	8cc
.	.	.	.	2dd
=25	=25	=25	=25	=25
1r	4c	0e	2g	1ee
.	4d	.	.	.
.	4e	.	2g	.
.	4f	.	.	.
1c	1g	.	2e	1r
.	.	.	2g	.
=26	=26	=26	=26	=26
2A	2r	1c	2f	0r
1c	2g	.	4e	.
.	.	.	4f	.
.	2G	1d	4g	.
.	.	.	8f	.
.	.	.	8e	.
2B	[2g	.	2d	.
=27	=27	=27	=27	=27
1A	2g]	1c	2e	0r
.	2f	.	4d	.
.	.	.	4c	.
1G	1g	1B	1d	.
=28	=28	=28	=28	=28
1C	1e	2.c	1g	0ee
.	.	4B	.	.
[1c	1g	4c	2e	.
.	.	4d	.	.
.	.	[2e	[2g	.
=29	=29	=29	=29	=29
1c]	2e	4e]	2g]	1cc
.	.	4d	.	.
.	1g	1c	2e	.
1G	.	.	4d	1dd
.	.	.	8e	.
.	.	.	8f	.
.	2d	2B	[2g	.
=30	=30	=30	=30	=30
2.C	1e	1c	4g]	1cc
.	.	.	4e	.
.	.	.	1a	.
4D	.	.	.	.
1E	1e	1r	.	1b
.	.	.	2g	.
=31	=31	=31	=31	=31
1.A	1r	0r	2f	2.cc
.	.	.	2e	.
.	.	.	.	4b
.	1e	.	2a	4cc
.	.	.	.	4dd
2E	.	.	4g	[2ee
.	.	.	4f	.
=32	=32	=32	=32	=32
1A	1c	0r	2.e	4ee]
.	.	.	.	4dd
.	.	.	.	1cc
.	.	.	4f	.
1G	1d	.	1g	.
.	.	.	.	2b
=33	=33	=33	=33	=33
1C	2.c	1r	2e	1cc
.	.	.	1g	.
.	4d	.	.	.
[1c	4e	1e	.	1r
.	4f	.	.	.
.	[2g	.	[2e	.
=34	=34	=34	=34	=34
2c]	4g]	1c	2e]	0r
.	4e	.	.	.
2A	1a	.	1f	.
1B-	.	1d	.	.
.	2g	.	4e	.
.	.	.	4d	.
=35	=35	=35	=35	=35
1A	1a	1c	2e	0r
.	.	.	2f	.
2.G	2d	1B	1g	.
.	2e	.	.	.
8F	.	.	.	.
8E	.	.	.	.
=36	=36	=36	=36	=36
4D	1f	1d	1.a	1r
4E	.	.	.	.
4F	.	.	.	.
4G	.	.	.	.
4A	2.e	2c	.	1ee
4B	.	.	.	.
[2c	.	[2e	4g	.
.	4f	.	4f	.
=37	=37	=37	=37	=37
4c]	2g	4e]	1e	1cc
4B	.	4d	.	.
2A	2a	1c	.	.
1G	1d	.	1g	1dd
.	.	2B	.	.
=38	=38	=38	=38	=38
1A	2r	1c	2e	1cc
.	2A	.	1a	.
1E	2B	1e	.	1b
.	2e	.	2g#	.
=39	=39	=39	=39	=39
4D	2A	1f	0a	1dd
4E	.	.	.	.
4F	2.A	.	.	.
4G	.	.	.	.
1A	.	[1e	.	2cc
.	4B	.	.	.
.	4c	.	.	[2ee
.	4d	.	.	.
=40	=40	=40	=40	=40
1E	4e	2e]	[0g	4ee]
.	4f	.	.	4dd
.	2.g	2e	.	1cc
1G	.	1d	.	.
.	8f	.	.	.
.	8e	.	.	.
.	2d	.	.	2b
=41	=41	=41	=41	=41
0C	0e	0c	0g]	0cc
==	==	==	==	==
*-	*-	*-	*-	*-
!!!CDT: 1525/^1526/-1594/2/2
!!!OCY: Italia
!!!AGN: Mass (Paraphrase)
!!!AST: renaissance, vocal
!!!ASW: Gregorian Mass
!!!PWK: Masses, Book 7
!!!RNB: Cadence finals: C,G,A,D
!!!YOR: Le Opere Complete, v. 23, p. 182
!!!YOO: Rome, Italy: Fratelli Scalera
!!!END: 1992//
!!!EED: John Miller
!!!YEC: Copyright 2000, John Miller
!!!YEN: United States of America
!!!YEM: Rights to all derivative electronic formats reserved.
!!!YEM: Refer to licensing agreement for further details.
!!!YEM: This file must be accompanied by the licensing agreement.
!!!YEM: A copy of the licensing agreement may be found at http://www.music-cog.ohio-state.edu/HumdrumDatabases/Palestrina/license.txt
!!!EMD: converted to Humdrum by Bret Aarden
